symbolic/32x32/apps/cdogs-sdl.svg

<svg width="32" height="32" version="1.1" xmlns="http://www.w3.org/2000/svg">
 <path d="m5 22h20v6h-4v3h-12v-3h-4z" style="opacity:.2"/>
 <path d="m5 21h20v6h-4v3h-12v-3h-4z" style="fill:#994c1f"/>
 <path d="m5 8h20v16h-4v4h-12v-4h-4z" style="opacity:.2"/>
 <path d="m5 7h20v16h-4v4h-12v-4h-4z" style="fill:#b06332"/>
 <rect x="5" y="14" width="20" height="4" style="fill:#93481e"/>
 <rect x="18" y="15" width="4" height="4" style="opacity:.1"/>
 <rect x="18" y="14" width="4" height="4" style="fill:#3f3f3f"/>
 <path d="m5 6.5v5.5h13v-5.5zm13 3.4999997v5.0000003h7v-5.0000003z" style="opacity:.1"/>
 <rect x="8" y="15" width="4" height="4" style="opacity:.1"/>
 <rect x="8" y="14" width="4" height="4" style="fill:#3f3f3f"/>
 <path d="m5 5.5000003v5.4999997h13v-5.4999997zm13 3.4999997v5h7v-5z" style="fill:#4f4f4f"/>
 <path d="m5 3v5h13v4h9v-9z" style="opacity:.2"/>
 <path d="m5 2v5h13v4h9v-9z" style="fill:#ae1919"/>
 <rect x="12" y="19" width="6" height="2" style="opacity:.2"/>
 <rect x="12" y="18" width="6" height="2" style="fill:#c77947"/>
 <rect x="11" y="23" width="8" height="2" style="fill:#703717"/>
 <rect x="18" y="2" width="9" height="9" style="fill:#862014"/>
 <path d="m5 2v1h22v-1h-22z" style="fill:#ffffff;opacity:.1"/>
</svg>

<svg width="32" height="32" xmlns="http://www.w3.org/2000/svg"><path d="M5 22h20v6h-4v3H9v-3H5z" style="opacity:.2"/><path d="M5 21h20v6h-4v3H9v-3H5z" style="fill:#994c1f"/><path d="M5 8h20v16h-4v4H9v-4H5z" style="opacity:.2"/><path d="M5 7h20v16h-4v4H9v-4H5z" style="fill:#b06332"/><path style="fill:#93481e" d="M5 14h20v4H5z"/><path style="opacity:.1" d="M18 15h4v4h-4z"/><path style="fill:#3f3f3f" d="M18 14h4v4h-4z"/><path d="M5 6.5V12h13V6.5zM18 10v5h7v-5zM8 15h4v4H8z" style="opacity:.1"/><path style="fill:#3f3f3f" d="M8 14h4v4H8z"/><path d="M5 5.5V11h13V5.5zM18 9v5h7V9z" style="fill:#4f4f4f"/><path d="M5 3v5h13v4h9V3z" style="opacity:.2"/><path d="M5 2v5h13v4h9V2z" style="fill:#ae1919"/><path style="opacity:.2" d="M12 19h6v2h-6z"/><path style="fill:#c77947" d="M12 18h6v2h-6z"/><path style="fill:#703717" d="M11 23h8v2h-8z"/><path style="fill:#862014" d="M18 2h9v9h-9z"/><path d="M5 2v1h22V2H5z" style="fill:#fff;opacity:.1"/></svg>
